X:97
T:Swedish Jig
C:Arthur Darley
M:6/8
K:D
|:d2e| "D"fed "A"edc|"D"dcB "G"BAG| "D"FED "A"EDC |"D"DA,B, "A"CDE|
"D"DFA dfe| "D"def "G"g3| "D"fed "A7"edc | "D"d3:|
K:Dm
|:dcB|"Dm"A2f fef| A2f fef| "Dm"fef "A/E"gfg |"Dm/F"aga "Gm"b3|
"Dm"A2f fef| A2f f2g| "Dm"fed "A7"ed^c |"Dm"d3:|
